icons/Color/scalable/gimp-curve-smooth.svg

<svg height="16" viewBox="0 0 16 16" width="16" xmlns="http://www.w3.org/2000/svg"><g transform="translate(0 -1036.3622)"><path d="m0 1036.3622h16v16h-16z" fill="none"/><path d="m13.5 1a1.5 1.5000001 0 0 0 -1.5 1.5 1.5 1.5000001 0 0 0 1.052734 1.4316406c-.0092.137537-.169354 2.4622998-.855468 4.0585938-.353267.8218-.800262 1.3344437-1.28711 1.4023437-.486847.068-1.3226171-.2676375-2.5253904-1.7109375-.6499252-.7799-1.2401173-1.3081062-1.8085937-1.6289062-.5684764-.3209-1.1393303-.4293938-1.6503907-.3085938-1.0221206.2414-1.5975945 1.2221313-1.9882812 2.2695313-.528811 1.4176323-.7295296 3.0736571-.8125 4.0351561a1.5 1.5000001 0 0 0 -1.125 1.451172 1.5 1.5000001 0 0 0 1.5 1.5 1.5 1.5000001 0 0 0 1.5-1.5 1.5 1.5000001 0 0 0 -.8671875-1.357422c.0645526-.825097.2191882-2.3771784.7421875-3.7792968.3436883-.9213999.8150894-1.5344312 1.28125-1.6445312.2330803-.055.5172069-.028022.9296875.2050781.4124806.2328.9292221.6764844 1.5292969 1.3964844 1.2972267 1.5567 2.4067696 2.2055005 3.4316406 2.0624995 1.024871-.143 1.656001-1.0366933 2.068359-1.9960932.824717-1.9187.947266-4.4824219.947266-4.4824219l-.03125-.00195a1.5 1.5000001 0 0 0 .96875-1.4023469 1.5 1.5000001 0 0 0 -1.5-1.5z" stroke="#d3d7cb" stroke-width=".3" transform="translate(0 1036.3622)"/></g></svg>

<?xml version="1.0" encoding="UTF-8" standalone="no"?>
<svg
   xmlns:dc="http://purl.org/dc/elements/1.1/"
   xmlns:cc="http://creativecommons.org/ns#"
   xmlns:rdf="http://www.w3.org/1999/02/22-rdf-syntax-ns#"
   xmlns:svg="http://www.w3.org/2000/svg"
   xmlns="http://www.w3.org/2000/svg"
   xmlns:sodipodi="http://sodipodi.sourceforge.net/DTD/sodipodi-0.dtd"
   xmlns:inkscape="http://www.inkscape.org/namespaces/inkscape"
   width="16"
   height="16"
   viewBox="0 0 16 16"
   id="svg30571"
   version="1.1"
   inkscape:version="0.91+devel r"
   sodipodi:docname="gimp-curve-smooth.svg">
  <defs
     id="defs30573" />
  <sodipodi:namedview
     id="base"
     pagecolor="#ffffff"
     bordercolor="#666666"
     borderopacity="1"
     inkscape:pageopacity="0"
     inkscape:pageshadow="2"
     inkscape:zoom="16"
     inkscape:cx="8.5625"
     inkscape:cy="17.488086"
     inkscape:document-units="px"
     inkscape:current-layer="layer1"
     showgrid="true"
     units="px"
     inkscape:snap-page="true"
     inkscape:snap-bbox="true"
     inkscape:bbox-paths="true"
     inkscape:bbox-nodes="true"
     inkscape:snap-bbox-edge-midpoints="true"
     inkscape:snap-bbox-midpoints="true"
     inkscape:object-paths="true"
     inkscape:snap-intersection-paths="true"
     inkscape:object-nodes="true"
     inkscape:snap-smooth-nodes="true"
     inkscape:snap-midpoints="true"
     inkscape:snap-object-midpoints="true"
     inkscape:snap-center="true"
     inkscape:snap-text-baseline="true"
     showborder="false"
     inkscape:window-width="1440"
     inkscape:window-height="752"
     inkscape:window-x="564"
     inkscape:window-y="207"
     inkscape:window-maximized="0"
     inkscape:snap-global="false"
     showguides="false">
    <inkscape:grid
       type="xygrid"
       id="grid7338" />
  </sodipodi:namedview>
  <metadata
     id="metadata30576">
    <rdf:RDF>
      <cc:Work
         rdf:about="">
        <dc:format>
          image/svg+xml
        </dc:format>
        <dc:type
           rdf:resource="http://purl.org/dc/dcmitype/StillImage" />
        <dc:creator>
          <cc:Agent>
            <dc:title>Klaus Staedtler       </dc:title>
          </cc:Agent>
        </dc:creator>
        <dc:title></dc:title>
      </cc:Work>
    </rdf:RDF>
  </metadata>
  <g
     inkscape:label="Layer 1"
     inkscape:groupmode="layer"
     id="layer1"
     transform="translate(0,-1036.3622)">
    <g
       id="g7349">
      <rect
         style="fill:none;stroke:none"
         id="rect7185"
         width="16"
         height="16"
         x="3.642578e-07"
         y="1036.3622" />
      <path
         style="fill:#000000;fill-opacity:1;stroke:#d3d7cb;stroke-width:0.30000001;stroke-miterlimit:4;stroke-dasharray:none;stroke-opacity:1"
         d="M 13.5,1 A 1.5,1.5000001 0 0 0 12,2.5 1.5,1.5000001 0 0 0 13.052734,3.9316406 c -0.0092,0.137537 -0.169354,2.4622998 -0.855468,4.0585938 -0.353267,0.8218 -0.800262,1.3344437 -1.28711,1.4023437 C 10.423309,9.4605781 9.5875389,9.1249406 8.3847656,7.6816406 7.7348404,6.9017406 7.1446483,6.3735344 6.5761719,6.0527344 6.0076955,5.7318344 5.4368416,5.6233406 4.9257812,5.7441406 3.9036606,5.9855406 3.3281867,6.9662719 2.9375,8.0136719 2.408689,9.4313042 2.2079704,11.087329 2.125,12.048828 A 1.5,1.5000001 0 0 0 1,13.5 1.5,1.5000001 0 0 0 2.5,15 1.5,1.5000001 0 0 0 4,13.5 1.5,1.5000001 0 0 0 3.1328125,12.142578 C 3.1973651,11.317481 3.3520007,9.7653996 3.875,8.3632812 4.2186883,7.4418813 4.6900894,6.82885 5.15625,6.71875 c 0.2330803,-0.055 0.5172069,-0.028022 0.9296875,0.2050781 0.4124806,0.2328 0.9292221,0.6764844 1.5292969,1.3964844 1.2972267,1.5567 2.4067696,2.2055005 3.4316406,2.0624995 1.024871,-0.143 1.656001,-1.0366933 2.068359,-1.9960932 0.824717,-1.9187 0.947266,-4.4824219 0.947266,-4.4824219 l -0.03125,-0.00195 A 1.5,1.5000001 0 0 0 15,2.5 1.5,1.5000001 0 0 0 13.5,1 Z"
         transform="translate(0,1036.3622)"
         id="path7187"
         inkscape:connector-curvature="0" />
    </g>
  </g>
</svg>
